X: 3
T: Flooded Road To Glenties, The
Z: JACKB
S: https://thesession.org/tunes/3160#setting30292
R: reel
M: 4/4
L: 1/8
K: Bmin
|:FB B2 dfec|dfec BAFE|FB B2 faag|afeg f3e|
f3e fded|B3c defg|af f2 fedc|1dfec B3A:|2dfec B3c||
|:dB B2 fBgB|fB B2 B3c|dB B2 faag|afeg f3e|
f3e fded|B3c defg|af f2 fedc|1dfec B3c:|2dfec B3A||
